local/share/icons/dracula-icons-main/scalable/mimetypes/application-vnd.ms-publisher.svg

<?xml version="1.0" encoding="UTF-8"?>
<svg xmlns="http://www.w3.org/2000/svg" xmlns:xlink="http://www.w3.org/1999/xlink" width="64" height="64" viewBox="0 0 64 64">
<defs>
<filter id="filter-remove-color" x="0%" y="0%" width="100%" height="100%">
<feColorMatrix color-interpolation-filters="sRGB" values="0 0 0 0 1 0 0 0 0 1 0 0 0 0 1 0 0 0 1 0" />
</filter>
<mask id="mask-0">
<g filter="url(#filter-remove-color)">
<rect x="-6.4" y="-6.4" width="76.8" height="76.8" fill="rgb(0%, 0%, 0%)" fill-opacity="0.15"/>
</g>
</mask>
<linearGradient id="linear-pattern-0" gradientUnits="userSpaceOnUse" x1="49.570999" y1="52.714001" x2="51.714001" y2="54.856998" gradientTransform="matrix(2.3333, 0, 0, 2.3333, -68.667, -72.000999)">
<stop offset="0" stop-color="rgb(0%, 0%, 0%)" stop-opacity="1"/>
<stop offset="1" stop-color="rgb(0%, 0%, 0%)" stop-opacity="0"/>
</linearGradient>
<clipPath id="clip-0">
<rect x="0" y="0" width="64" height="64"/>
</clipPath>
<g id="source-13715" clip-path="url(#clip-0)">
<path fill-rule="evenodd" fill="url(#linear-pattern-0)" d="M 56 46 L 42 60 L 51 60 C 53.769531 60 56 57.769531 56 55 Z M 56 46 "/>
</g>
<mask id="mask-1">
<g filter="url(#filter-remove-color)">
<rect x="-6.4" y="-6.4" width="76.8" height="76.8" fill="rgb(0%, 0%, 0%)" fill-opacity="0.9"/>
</g>
</mask>
<clipPath id="clip-1">
<rect x="0" y="0" width="64" height="64"/>
</clipPath>
<g id="source-13719" clip-path="url(#clip-1)">
<path fill-rule="nonzero" fill="rgb(100%, 100%, 100%)" fill-opacity="1" d="M 35 21 C 34.445312 21 34 21.445312 34 22 L 34 24 L 22 24 C 21.445312 24 21 24.445312 21 25 L 21 42 C 21 42.554688 21.445312 43 22 43 L 39 43 C 39.554688 43 40 42.554688 40 42 L 40 38 L 42 38 C 42.554688 38 43 37.554688 43 37 L 43 22 C 43 21.445312 42.554688 21 42 21 Z M 35 22 L 42 22 L 42 37 L 40 37 L 40 25 C 40 24.445312 39.554688 24 39 24 C 37.445312 23.390625 34.9375 23.015625 35 22 Z M 23 27 L 38 27 L 38 31 L 23 31 Z M 23 33 L 30 33 L 30 34 L 23 34 Z M 31 33 L 38 33 L 38 34 L 31 34 Z M 23 36 L 30 36 L 30 37 L 23 37 Z M 31 36 L 38 36 L 38 37 L 31 37 Z M 23 39 L 30 39 L 30 40 L 23 40 Z M 31 39 L 38 39 L 38 40 L 31 40 Z M 31 39 "/>
</g>
</defs>
<path fill-rule="nonzero" fill="rgb(33.72549%, 80%, 33.72549%)" fill-opacity="1" d="M 13 4 L 51 4 C 53.761719 4 56 6.238281 56 9 L 56 55 C 56 57.761719 53.761719 60 51 60 L 13 60 C 10.238281 60 8 57.761719 8 55 L 8 9 C 8 6.238281 10.238281 4 13 4 Z M 13 4 "/>
<g mask="url(#mask-0)">
<use xlink:href="#source-13715"/>
</g>
<g mask="url(#mask-1)">
<use xlink:href="#source-13719"/>
</g>
</svg>

<svg width="64" height="64" version="1.1" viewBox="0 0 64 64" xmlns="http://www.w3.org/2000/svg">
 <defs>
  <linearGradient id="a" x1="49.571" x2="51.714" y1="52.714" y2="54.857" gradientTransform="matrix(2.3333,0,0,2.3333,-68.667,-72.001)" gradientUnits="userSpaceOnUse">
   <stop offset="0"/>
   <stop stop-opacity="0" offset="1"/>
  </linearGradient>
 </defs>
 <g transform="scale(1)">
  <rect x="8" y="4" width="48" height="56" ry="5" fill="#56cc56" style="paint-order:stroke fill markers"/>
  <path d="m56 46-14 14h9c2.77 0 5-2.23 5-5z" fill="url(#a)" fill-rule="evenodd" opacity=".15" stroke-width="8.8191" style="paint-order:stroke fill markers"/>
 </g>
 <path d="m35 21c-0.554 0-1 0.446-1 1v2h-12c-0.554 0-1 0.446-1 1v17c0 0.554 0.446 1 1 1h17c0.554 0 1-0.446 1-1v-4h2c0.554 0 1-0.446 1-1v-15c0-0.554-0.446-1-1-1h-7zm0 1h7v15h-2v-12c0-0.554-0.446-1-1-1-1.556-0.611-4.061-0.985-4-2zm-12 5h15v4h-15v-4zm0 6h7v1h-7v-1zm8 0h7v1h-7v-1zm-8 3h7v1h-7v-1zm8 0h7v1h-7v-1zm-8 3h7v1h-7v-1zm8 0h7v1h-7v-1z" color="#000000" color-rendering="auto" fill="#fff" image-rendering="auto" opacity=".9" shape-rendering="auto" solid-color="#000000" stroke-width="2" style="isolation:auto;mix-blend-mode:normal"/>
</svg>
